static/images/mobile/copyright/wikipedia-wordmark-bug.svg

<?xml version="1.0" encoding="UTF-8"?>
<svg width="120px" height="30px" viewBox="0 0 120 30" version="1.1" xmlns="http://www.w3.org/2000/svg" xmlns:xlink="http://www.w3.org/1999/xlink">
    <title>bug-wordmark</title>
    <g id="Page-1" stroke="none" stroke-width="1" fill="none" fill-rule="evenodd">
        <path d="M6.86882896,17.4471022 C6.06017229,17.4471129 5.25622399,17.846742 4.45698193,18.6459787 L2.03103009,21.0719327 L0,19.0267999 L2.96191844,16.0789766 C3.93981675,15.091683 4.87540598,14.5557239 5.76868829,14.4710779 C6.6713606,14.3864534 7.5270251,14.7437808 8.33568391,15.5430175 L10.747532,17.9689715 L13.1734839,15.5430175 C13.9727163,14.7437808 14.8612913,14.4287763 15.8392099,14.5980255 C16.8170954,14.7672853 17.8796236,15.420788 19.0267978,16.5585337 L22.4541598,19.999993 L21.3822277,21.0719327 L18.9703807,18.6459787 C18.1617112,17.846742 17.3530609,17.4471129 16.5444288,17.4471022 C15.7357615,17.4471129 14.9318132,17.846742 14.1325807,18.6459787 L11.7066289,21.0719327 L9.29478187,18.6459787 C8.48612199,17.846742 7.67747173,17.4471129 6.86882896,17.4471022 M11.0860367,1.72073505 L14.0338503,-1.77635684e-15 L15.2045129,2.00282048 L12.4541612,4.78138392 L11.0860367,1.72073505 M31.7066284,14.7249623 L33.7376574,16.7559945 L25.8956267,24.5980166 L23.8645977,22.5669951 L31.7066284,14.7249623 M39.9435818,14.7108404 L41.9746109,16.7418619 L34.1325802,24.5838947 L32.1015512,22.5528625 L39.9435818,14.7108404 M30.6064877,1.72073505 L33.5543013,-1.77635684e-15 L34.7249639,2.00282048 L31.9746111,4.78138392 L30.6064877,1.72073505 M48.321578,14.5557132 L50.3667129,16.5867347 L46.4880099,20.4654388 L54.2313101,28.1946353 L53.159378,29.2665642 L43.3850487,19.492235 L48.321578,14.5557132 M62.1297589,14.8518991 C63.0230273,14.3817674 64.0338393,14.7108725 65.1621982,15.8392035 C66.2905367,16.8735381 67.4188859,18.0018906 68.547248,19.2242608 C69.6755833,20.3526132 70.9637809,20.6158908 72.4118462,20.0141043 C73.8974876,19.3747128 74.696734,18.5754654 74.8095885,17.616362 C74.9224044,16.6572694 74.4146475,15.6135523 73.2863164,14.4851891 L70.7475293,11.9463988 C69.0549911,10.2538863 68.3873846,9.22897692 68.7447089,8.87164944 L69.2665707,8.33567963 L75.8815217,14.9506349 C77.3483531,16.4174963 77.6022321,18.3827011 76.6431577,20.84626 L74.3441448,22.5810956 C72.2566805,23.5401989 70.6487839,23.4555744 69.5204497,22.3272219 L67.8279253,20.6346986 L66.1353999,18.9421646 C65.00704,17.8138229 64.0432422,17.508233 63.2440044,18.0253843 C62.4447484,18.542557 61.6643078,19.3418044 60.9026782,20.4231265 L58.7870225,23.8786972 L56.4739059,20.7193232 L58.9985882,17.5599385 C60.2021559,16.2153281 61.2458784,15.312659 62.1297589,14.8518991 M94.1043701,15.0070477 L96.1495039,17.03808 L88.3074732,24.8801128 L79.4922409,16.0789766 L80.564173,15.0070477 L87.3342715,21.7771516 L94.1043701,15.0070477 M87.3342715,10.2679761 L89.3653006,12.3131088 L87.3342715,14.3441411 L85.3032414,12.3131088 L87.3342715,10.2679761 M84.7672759,1.72073505 L87.7150895,-1.77635684e-15 L88.8857521,2.00282048 L86.1353993,4.78138392 L84.7672759,1.72073505 M114.090264,21.6078918 L116.135396,23.638924 L114.090264,25.6840568 L112.059231,23.638924 L114.090264,21.6078918 M104.41467,17.4471022 C103.606008,17.4471129 102.802064,17.846742 102.002817,18.6459787 L99.5768628,21.0719327 L97.5458412,19.0267999 L100.507754,16.0789766 C101.485655,15.091683 102.421243,14.5557239 103.31453,14.4710779 C104.217199,14.3864534 105.072859,14.7437808 105.881521,15.5430175 L108.293364,17.9689715 L110.719318,15.5430175 C111.518554,14.7437808 112.407123,14.4287763 113.385045,14.5980255 C114.362934,14.7672853 115.425459,15.420788 116.57263,16.5585337 L120,19.999993 L118.92806,21.0719327 L116.516218,18.6459787 C115.707545,17.846742 114.898894,17.4471129 114.090264,17.4471022 C113.281602,17.4471129 112.477647,17.846742 111.678421,18.6459787 L109.252467,21.0719327 L106.840613,18.6459787 C106.031962,17.846742 105.223311,17.4471129 104.41467,17.4471022" id="bug-wordmark" fill="#000000" fill-rule="nonzero"></path>
    </g>
</svg>

<svg xmlns="http://www.w3.org/2000/svg" width="120" height="30"><path fill="#000" fill-rule="nonzero" d="M6.869 17.447c-.809 0-1.613.4-2.412 1.199l-2.426 2.426L0 19.027l2.962-2.948c.978-.987 1.913-1.523 2.807-1.608.902-.085 1.758.273 2.567 1.072l2.412 2.426 2.425-2.426c.8-.8 1.688-1.114 2.666-.945.978.17 2.04.823 3.188 1.96L22.454 20l-1.072 1.072-2.412-2.426c-.808-.8-1.617-1.199-2.426-1.199-.808 0-1.612.4-2.411 1.199l-2.426 2.426-2.412-2.426c-.809-.8-1.618-1.199-2.426-1.199m4.217-15.726L14.034 0l1.17 2.003-2.75 2.778-1.368-3.06m20.62 13.004 2.032 2.031-7.842 7.842-2.031-2.031 7.842-7.842m8.237-.014 2.03 2.03-7.841 7.843-2.031-2.031 7.842-7.842M30.606 1.72 33.554 0l1.171 2.003-2.75 2.778-1.369-3.06m17.716 12.835 2.045 2.03-3.879 3.88 7.743 7.729-1.072 1.072-9.774-9.775 4.937-4.936m13.808.296c.893-.47 1.904-.141 3.032.987a57.46 57.46 0 0 1 3.385 3.385c1.129 1.129 2.417 1.392 3.865.79 1.485-.64 2.285-1.439 2.398-2.398.112-.959-.395-2.002-1.524-3.13l-2.538-2.54c-1.693-1.692-2.36-2.717-2.003-3.074l.522-.536 6.615 6.615c1.466 1.466 1.72 3.432.761 5.895l-2.299 1.735c-2.087.96-3.695.875-4.824-.254l-1.692-1.692-1.693-1.693c-1.128-1.128-2.092-1.434-2.891-.917-.8.518-1.58 1.317-2.341 2.398l-2.116 3.456-2.313-3.16 2.525-3.16c1.203-1.344 2.247-2.246 3.13-2.707m31.975.155 2.046 2.031-7.843 7.842-8.815-8.801 1.072-1.072 6.77 6.77 6.77-6.77m-6.77-4.739 2.031 2.045-2.03 2.031-2.032-2.03 2.031-2.046m-2.567-8.547L87.715 0l1.17 2.003-2.75 2.778-1.368-3.06m29.323 19.887 2.045 2.03-2.045 2.046-2.03-2.045 2.03-2.031m-9.675-4.16c-.809 0-1.613.399-2.412 1.198l-2.426 2.426-2.031-2.045 2.962-2.948c.978-.987 1.913-1.523 2.807-1.608.902-.085 1.758.273 2.567 1.072l2.411 2.426 2.426-2.426c.8-.8 1.688-1.114 2.666-.945.978.17 2.04.823 3.188 1.96L120 20l-1.072 1.072-2.412-2.426c-.808-.8-1.617-1.199-2.426-1.199-.808 0-1.612.4-2.412 1.199l-2.426 2.426-2.411-2.426c-.809-.8-1.618-1.199-2.426-1.199"/></svg>
